assets/img/team-twitter.svg

<svg xmlns="http://www.w3.org/2000/svg" width="30" height="30" viewBox="0 0 30 30">
  <path fill="#333" fill-rule="evenodd" d="M707,353 L733,353 C734.104569,353 735,353.895431 735,355 L735,381 C735,382.104569 734.104569,383 733,383 L707,383 C705.895431,383 705,382.104569 705,381 L705,355 C705,353.895431 705.895431,353 707,353 Z M722.083602,362.14154 C720.773971,362.618204 719.946284,363.846937 720.040577,365.192188 L720.072009,365.711222 L719.548156,365.647667 C717.641333,365.404038 715.975482,364.577821 714.56108,363.1902 L713.869595,362.501686 L713.691485,363.010127 C713.314311,364.143528 713.555284,365.340483 714.341062,366.145515 C714.760144,366.590402 714.665851,366.653957 713.942934,366.389143 C713.691485,366.304403 713.471467,366.240848 713.450513,366.272626 C713.377174,366.346773 713.628623,367.310693 713.827687,367.692024 C714.10009,368.221651 714.655374,368.740685 715.263043,369.047868 L715.776418,369.291496 L715.168749,369.302089 C714.582035,369.302089 714.56108,369.312681 714.623943,369.535124 C714.833484,370.223638 715.661171,370.954523 716.583151,371.272299 L717.232728,371.494742 L716.666967,371.833703 C715.828803,372.320959 714.843961,372.596365 713.859118,372.61755 C713.387651,372.628142 713,372.670512 713,372.70229 C713,372.808215 714.2782,373.401397 715.022071,373.634432 C717.253682,374.322946 719.904376,374.026356 721.895015,372.850585 C723.309417,372.013776 724.723819,370.350749 725.383873,368.740685 C725.740092,367.88269 726.096312,366.314996 726.096312,365.562926 C726.096312,365.07567 726.127743,365.012115 726.714458,364.429526 C727.060201,364.090565 727.384989,363.719827 727.447852,363.613901 C727.552622,363.412643 727.542145,363.412643 727.007815,363.592716 C726.117266,363.910492 725.991542,363.868122 726.431578,363.391458 C726.756366,363.052497 727.144017,362.438131 727.144017,362.258058 C727.144017,362.22628 726.986861,362.279243 726.808751,362.374576 C726.620165,362.480501 726.201083,362.639389 725.886771,362.734722 L725.32101,362.914795 L724.807635,362.565241 C724.524755,362.374576 724.126627,362.162725 723.917086,362.09917 C723.382756,361.950875 722.565546,361.97206 722.083602,362.14154 Z" transform="translate(-705 -353)"/>
</svg>

<?xml version="1.0" encoding="UTF-8" standalone="no"?>
<svg width="30" xmlns="http://www.w3.org/2000/svg" viewBox="0 0 30 30" height="30">
 <path fill-rule="evenodd" d="m707 353h26c1.1 0 2 0.9 2 2v26c0 1.1-0.9 2-2 2h-26c-1.1 0-2-0.9-2-2v-26c0-1.1 0.9-2 2-2zm15.08 9.14c-1.31 0.48-2.13 1.71-2.04 3.05l0.03 0.52-0.52-0.06c-1.91-0.25-3.57-1.07-4.99-2.46l-0.69-0.69-0.18 0.51c-0.38 1.13-0.13 2.33 0.65 3.14 0.42 0.44 0.33 0.5-0.4 0.24-0.25-0.09-0.47-0.15-0.49-0.12-0.07 0.08 0.18 1.04 0.38 1.42 0.27 0.53 0.83 1.05 1.43 1.36l0.52 0.24-0.61 0.01c-0.59 0-0.61 0.01-0.55 0.24 0.21 0.68 1.04 1.41 1.96 1.73l0.65 0.22-0.56 0.34c-0.84 0.49-1.83 0.77-2.81 0.79-0.47 0.01-0.86 0.05-0.86 0.08 0 0.11 1.28 0.7 2.02 0.93 2.23 0.69 4.88 0.4 6.88-0.78 1.41-0.84 2.82-2.5 3.48-4.11 0.36-0.86 0.72-2.43 0.72-3.18 0-0.48 0.03-0.55 0.61-1.13 0.35-0.34 0.67-0.71 0.74-0.82 0.1-0.2 0.09-0.2-0.44-0.02-0.89 0.32-1.02 0.28-0.58-0.2 0.33-0.34 0.71-0.95 0.71-1.13 0-0.03-0.15 0.02-0.33 0.11-0.19 0.11-0.61 0.27-0.92 0.36l-0.57 0.18-0.51-0.34c-0.29-0.2-0.68-0.41-0.89-0.47-0.54-0.15-1.35-0.13-1.84 0.04z" transform="translate(-705 -353)" fill="#333"/>
</svg>
